F[BALLADE
CUT[Graf und Nonne (Die Nonne)
    Stand ich auf hohen Felsen]
CNR[und schau ins tiefe Tal,]
REG[Osteuropa, UdSSR, Bessarabien, Karolinengrund, Eigenheim]
SRC[8, S. 97
    1941 aufgezeichnet]
KEY[Q0155k 16 Eb 6/8]
MEL[-5_  1__3_5__1_  1_-7__0__
    -5_  -7__2_5__4_  3__.0__
    12  3__3_4__5_  6__+1_7__
    6_  5_5_5_5__4_  3__.0__ //] >>
FCT[Ballade, Standesunterschied, Werbung, Liebe]
